X: 17
T:J'amerois mieulx dormir seulette
T:I would rather sleep alone
M:6/4
R:Galliard
B:Thoinot Arbeau : Orchesographie, 1589
Z:Steve Mansfield February 2001
K:GDor
FFF FFF | GGG AzA | BBB AAA | AGA ^FzF ||
FGA BBA | AGG ^FzF | FGA BBA | GG^F GzG ||

